Flat-Remix-Brown-Dark/panel/printer-printing-symbolic.svg

<svg width="24" height="24" version="1.1" xmlns="http://www.w3.org/2000/svg">
 <defs>
  <style id="current-color-scheme" type="text/css">.ColorScheme-Text { color:#eeeeec; } .ColorScheme-Highlight { color:#367bf0; } .ColorScheme-NeutralText { color:#ffcc44; } .ColorScheme-PositiveText { color:#3db47e; } .ColorScheme-NegativeText { color:#dd4747; }</style>
 </defs>
 <path class="ColorScheme-Text" d="m8 5v2h8v-2zm-2 3c-0.5 0-1 0.5-1 1h14c0-0.5-0.5-1-1-1zm2 7v3h8v-3z" style="fill:currentColor;opacity:.35"/>
 <path class="ColorScheme-Text" d="m9 12a2 2 0 0 1-2 2 2 2 0 0 1-2-2 2 2 0 0 1 2-2 2 2 0 0 1 2 2z" style="fill:currentColor"/>
 <path class="ColorScheme-Text" d="m14 12a2 2 0 0 1-2 2 2 2 0 0 1-2-2 2 2 0 0 1 2-2 2 2 0 0 1 2 2z" style="fill:currentColor"/>
 <path class="ColorScheme-Text" d="m19 12a2 2 0 0 1-2 2 2 2 0 0 1-2-2 2 2 0 0 1 2-2 2 2 0 0 1 2 2z" style="fill:currentColor"/>
</svg>

<svg xmlns="http://www.w3.org/2000/svg" width="24" height="24" version="1.1">
 <path style="opacity:.35;fill:#eeeeec" d="m 8,5 v 2 h 8 V 5 Z M 6,8 C 5.5,8 5,8.5 5,9 V 9 H 19 V 9 C 19,8.5 18.5,8 18,8 Z m 2,7 v 3 h 8 v -3 z"/>
 <path style="fill:#eeeeec" d="M 9,12 A 2,2 0 0 1 7,14 2,2 0 0 1 5,12 2,2 0 0 1 7,10 2,2 0 0 1 9,12 Z"/>
 <path style="fill:#eeeeec" d="m 14,12 a 2,2 0 0 1 -2,2 2,2 0 0 1 -2,-2 2,2 0 0 1 2,-2 2,2 0 0 1 2,2 z"/>
 <path style="fill:#eeeeec" d="m 19,12 a 2,2 0 0 1 -2,2 2,2 0 0 1 -2,-2 2,2 0 0 1 2,-2 2,2 0 0 1 2,2 z"/>
</svg>
